Newaita-dark/actions/16/debug-step-into-instruction.svg

<?xml version="1.0" encoding="UTF-8"?>
<svg xmlns="http://www.w3.org/2000/svg" xmlns:xlink="http://www.w3.org/1999/xlink" width="16pt" height="16pt" viewBox="0 0 16 16" version="1.1">
<g id="surface1">
<path style=" stroke:none;fill-rule:nonzero;fill:rgb(74.117649%,74.117649%,74.117649%);fill-opacity:1;" d="M 6.285156 4.753906 C 5.367188 4.753906 4.628906 5.347656 4.628906 6.078125 L 4.628906 7.734375 L 2.976562 8.726562 L 4.628906 9.71875 L 4.628906 11.371094 C 4.628906 12.105469 5.367188 12.695312 6.285156 12.695312 C 6.398438 12.695312 6.507812 12.683594 6.613281 12.667969 L 6.613281 11.703125 C 6.25 11.703125 5.621094 11.40625 5.621094 11.039062 L 5.621094 9.121094 L 4.960938 8.726562 L 5.621094 8.328125 L 5.621094 6.410156 C 5.621094 6.042969 6.25 5.746094 6.613281 5.746094 L 6.613281 4.78125 C 6.507812 4.765625 6.398438 4.753906 6.285156 4.753906 Z M 6.285156 4.753906 "/>
<path style=" stroke:none;fill-rule:nonzero;fill:rgb(74.117649%,74.117649%,74.117649%);fill-opacity:1;" d="M 9.59375 4.753906 C 10.507812 4.753906 11.246094 5.347656 11.246094 6.078125 L 11.246094 7.734375 L 12.898438 8.726562 L 11.246094 9.71875 L 11.246094 11.371094 C 11.246094 12.105469 10.507812 12.695312 9.59375 12.695312 C 9.480469 12.695312 9.367188 12.683594 9.261719 12.667969 L 9.261719 11.703125 C 9.628906 11.703125 10.269531 11.40625 10.253906 11.039062 L 10.253906 9.121094 L 10.914062 8.726562 L 10.253906 8.328125 L 10.253906 6.410156 C 10.253906 6.042969 9.628906 5.746094 9.261719 5.746094 L 9.261719 4.78125 C 9.367188 4.765625 9.480469 4.753906 9.59375 4.753906 Z M 9.59375 4.753906 "/>
<path style=" stroke:none;fill-rule:evenodd;fill:rgb(100%,43.921569%,26.274511%);fill-opacity:1;" d="M 10.253906 1.125 C 10.253906 0.941406 10.105469 0.792969 9.921875 0.792969 L 5.953125 0.792969 C 5.703125 0.792969 5.542969 1.0625 5.664062 1.28125 L 7.648438 3.605469 C 7.855469 3.851562 8.019531 3.851562 8.230469 3.605469 L 10.214844 1.28125 C 10.238281 1.234375 10.253906 1.179688 10.253906 1.125 Z M 10.253906 1.125 "/>
<path style=" stroke:none;fill-rule:nonzero;fill:rgb(74.117649%,74.117649%,74.117649%);fill-opacity:1;" d="M 1.984375 0.785156 C 1.433594 0.785156 0.992188 1.230469 0.992188 1.777344 L 0.992188 14.347656 C 0.992188 14.898438 1.433594 15.339844 1.984375 15.339844 L 13.890625 15.339844 C 14.441406 15.339844 14.882812 14.898438 14.882812 14.347656 L 14.882812 1.777344 C 14.882812 1.230469 14.441406 0.785156 13.890625 0.785156 L 11.246094 0.785156 L 11.246094 3.761719 L 13.230469 3.761719 C 13.597656 3.761719 13.890625 4.058594 13.890625 4.425781 L 13.890625 13.6875 C 13.890625 14.050781 13.597656 14.347656 13.230469 14.347656 L 2.644531 14.347656 C 2.28125 14.347656 1.984375 14.050781 1.984375 13.6875 L 1.984375 4.425781 C 1.984375 4.058594 2.28125 3.761719 2.644531 3.761719 L 4.628906 3.761719 L 4.628906 0.785156 Z M 1.984375 0.785156 "/>
<path style=" stroke:none;fill-rule:nonzero;fill:rgb(100%,43.921569%,26.274511%);fill-opacity:1;" d="M 7.9375 7.402344 C 8.304688 7.402344 8.601562 7.699219 8.601562 8.0625 L 8.601562 12.03125 C 8.601562 12.398438 8.304688 12.695312 7.9375 12.695312 C 7.574219 12.695312 7.277344 12.398438 7.277344 12.03125 L 7.277344 8.0625 C 7.277344 7.699219 7.574219 7.402344 7.9375 7.402344 Z M 7.9375 7.402344 "/>
<path style=" stroke:none;fill-rule:nonzero;fill:rgb(100%,43.921569%,26.274511%);fill-opacity:1;" d="M 7.9375 4.753906 C 8.304688 4.753906 8.601562 5.050781 8.601562 5.417969 C 8.601562 5.78125 8.304688 6.078125 7.9375 6.078125 C 7.574219 6.078125 7.277344 5.78125 7.277344 5.417969 C 7.277344 5.050781 7.574219 4.753906 7.9375 4.753906 Z M 7.9375 4.753906 "/>
</g>
</svg>

<svg xmlns="http://www.w3.org/2000/svg" width="16pt" height="16pt" viewBox="0 0 16 16"><path d="M6.285 4.754c-.918 0-1.656.594-1.656 1.324v1.656l-1.652.993 1.652.992v1.652c0 .734.738 1.324 1.656 1.324.113 0 .223-.011.328-.027v-.965c-.363 0-.992-.297-.992-.664V9.121l-.66-.394.66-.399V6.41c0-.367.629-.664.992-.664v-.965a2.23 2.23 0 0 0-.328-.027zm0 0M9.594 4.754c.914 0 1.652.594 1.652 1.324v1.656l1.652.993-1.652.992v1.652c0 .734-.738 1.324-1.652 1.324-.114 0-.227-.011-.332-.027v-.965c.367 0 1.008-.297.992-.664V9.121l.66-.394-.66-.399V6.41c0-.367-.625-.664-.992-.664v-.965c.105-.015.218-.027.332-.027zm0 0" fill="#bdbdbd"/><path d="M10.254 1.125a.332.332 0 0 0-.332-.332H5.953a.33.33 0 0 0-.289.488l1.984 2.324c.207.247.372.247.582 0l1.985-2.324a.356.356 0 0 0 .039-.156zm0 0" fill-rule="evenodd" fill="#ff7043"/><path d="M1.984.785a.991.991 0 0 0-.992.992v12.57c0 .551.442.993.992.993h11.907c.55 0 .992-.442.992-.992V1.778a.991.991 0 0 0-.992-.993h-2.645v2.977h1.984a.66.66 0 0 1 .66.664v9.261a.66.66 0 0 1-.66.66H2.645a.662.662 0 0 1-.66-.66V4.427c0-.367.296-.664.66-.664h1.984V.785zm0 0" fill="#bdbdbd"/><path d="M7.938 7.402c.367 0 .664.297.664.66v3.97a.663.663 0 0 1-1.324 0v-3.97c0-.363.296-.66.66-.66zm0 0M7.938 4.754a.663.663 0 1 1 0 0zm0 0" fill="#ff7043"/></svg>
